icons/lines/sms-search.svg

<svg xmlns="http://www.w3.org/2000/svg" width="24" height="24" viewBox="0 0 24 24" fill="none" stroke="currentColor" stroke-width="2" stroke-linecap="round" stroke-linejoin="round" >
  <path d="M12 20.5H7C4 20.5 2 19 2 15.5V8.5C2 5 4 3.5 7 3.5H17C20 3.5 22 5 22 8.5V11.5" stroke-miterlimit="10"/>
  <path d="M17 9L13.87 11.5C12.84 12.32 11.15 12.32 10.12 11.5L7 9" stroke-miterlimit="10"/>
  <path d="M18.2 21.4C19.9673 21.4 21.4 19.9673 21.4 18.2C21.4 16.4327 19.9673 15 18.2 15C16.4327 15 15 16.4327 15 18.2C15 19.9673 16.4327 21.4 18.2 21.4Z"/>
  <path d="M22 22L21 21"/>
  </svg>

<svg xmlns="http://www.w3.org/2000/svg" width="24" height="24" viewBox="0 0 24 24" fill="none" stroke="currentColor" stroke-width="2" stroke-linecap="round" stroke-linejoin="round">
  <path d="M12 20.5H7c-3 0-5-1.5-5-5v-7c0-3.5 2-5 5-5h10c3 0 5 1.5 5 5v3" />
  <path d="m17 9-3.13 2.5c-1.03.82-2.72.82-3.75 0L7 9" />
  <path d="m22 22-1-1" />
  <circle cx="18.2" cy="18.2" r="3.2" />
</svg>
